X:1
T:Blue-Eyed Gal
M:4/4
L:1/4
K:C
 ed/2-d/2 c c| A G E2| G G A c| e2 e2| ed/2-d/2 c c| A G E2| G G A B|\
 c2 c2|
